src/svg/uf02c-tags.svg

<!-- Generated by IcoMoon.io -->
<svg version="1.1" xmlns="http://www.w3.org/2000/svg" width="34" height="32" viewBox="0 0 34 32">
<path d="M8 8c0-1.268-1.018-2.286-2.286-2.286s-2.286 1.018-2.286 2.286 1.018 2.286 2.286 2.286 2.286-1.018 2.286-2.286zM27.054 18.286c0 0.607-0.25 1.196-0.661 1.607l-8.768 8.786c-0.429 0.411-1.018 0.661-1.625 0.661s-1.196-0.25-1.607-0.661l-12.768-12.786c-0.911-0.893-1.625-2.625-1.625-3.893v-7.429c0-1.25 1.036-2.286 2.286-2.286h7.429c1.268 0 3 0.714 3.911 1.625l12.768 12.75c0.411 0.429 0.661 1.018 0.661 1.625zM33.911 18.286c0 0.607-0.25 1.196-0.661 1.607l-8.768 8.786c-0.429 0.411-1.018 0.661-1.625 0.661-0.929 0-1.393-0.429-2-1.054l8.393-8.393c0.411-0.411 0.661-1 0.661-1.607s-0.25-1.196-0.661-1.625l-12.768-12.75c-0.911-0.911-2.643-1.625-3.911-1.625h4c1.268 0 3 0.714 3.911 1.625l12.768 12.75c0.411 0.429 0.661 1.018 0.661 1.625z"></path>
</svg>

<svg xmlns="http://www.w3.org/2000/svg" width="34" height="32"><path d="M8 8c0-1.268-1.018-2.286-2.286-2.286S3.428 6.732 3.428 8s1.018 2.286 2.286 2.286S8 9.268 8 8zm19.054 10.286c0 .607-.25 1.196-.661 1.607l-8.768 8.786c-.429.411-1.018.661-1.625.661s-1.196-.25-1.607-.661L1.625 15.893C.714 15 0 13.268 0 12V4.571a2.302 2.302 0 0 1 2.286-2.286h7.429c1.268 0 3 .714 3.911 1.625l12.768 12.75c.411.429.661 1.018.661 1.625zm6.857 0c0 .607-.25 1.196-.661 1.607l-8.768 8.786a2.375 2.375 0 0 1-1.625.661c-.929 0-1.393-.429-2-1.054l8.393-8.393c.411-.411.661-1 .661-1.607s-.25-1.196-.661-1.625L16.482 3.911c-.911-.911-2.643-1.625-3.911-1.625h4c1.268 0 3 .714 3.911 1.625l12.768 12.75c.411.429.661 1.018.661 1.625z"/></svg>
